X: 10279
T: Doghouse, The
R: reel
M: 4/4
K: Emixolydian
|EGBe ddBA|FGAF dBAd|BEE/E/E GABd|efdf edBc|
dBAd BA=GB|AFEF DEFD|EB,FG EFGA|BdAF E4:|
Bcde fdBd|ceAB cABA|GEAG EGBc|dfec dBBA|
Bcde fded|ceAB cAFG|EB,FG EFGA|BdAF E4:|

